X: 215
T: The Monaghan Twig
R: reel
M: 4/4
L: 1/8
K: Amix
|:ed|cAAB cded|cAAG E3d|cAAB cded|BAGB d2ed|
cAAB cded|cAAG E3d|cAAB cded|1 BAGB d2:|2 BAGB d4 |
|:(3Bcd ef gfed|(3Bcd ef e3d|(3Bcd ef gfge|dBGB d2ed|
(3Bcd ed (3Bcd ed|cAAB cdef|g3e dfed| BAGB d4:|
F: https://thesession.org/tunes/1070#setting14299

